; generated by Slic3r 1.3.0-dev on 2017-07-11 at 21:20:18

; external perimeters extrusion width = 0.40mm (3.02mm^3/s)
; perimeters extrusion width = 0.48mm (7.54mm^3/s)
; infill extrusion width = 0.48mm (10.05mm^3/s)
; solid infill extrusion width = 0.48mm (2.51mm^3/s)
; top infill extrusion width = 0.48mm (1.88mm^3/s)

M107
M190 S65 ; set bed temperature and wait for it to be reached
M104 S200 ; set temperature
G28 ; home all axes
G1 Z5 F5000 ; lift nozzle

; Filament gcode

M109 S200 ; set temperature and wait for it to be reached
G21 ; set units to millimeters
G90 ; use absolute coordinates
M82 ; use absolute distances for extrusion
G92 E0
G1 Z0.350 F7800.000
G1 E-2.00000 F2400.00000
G92 E0
G1 X65.792 Y75.521 F7800.000
G1 E2.00000 F2400.00000
G1 F1800
G1 X68.143 Y73.758 E2.22976
G1 X88.463 Y64.758 E3.96761
G1 X91.110 Y64.198 E4.17921
G1 X106.350 Y64.198 E5.37094
G1 X108.745 Y64.652 E5.56155
G1 X131.605 Y73.652 E7.48269
G1 X133.547 Y74.843 E7.66083
G1 X134.962 Y76.628 E7.83898
G1 X135.747 Y79.735 E8.08955
G1 X135.747 Y129.265 E11.96265
G1 X135.350 Y131.508 E12.14080
G1 X134.208 Y133.479 E12.31894
G1 X132.458 Y134.938 E12.49708
G1 X129.210 Y135.802 E12.75993
G1 X70.790 Y135.802 E17.32821
G1 X68.547 Y135.405 E17.50635
G1 X66.576 Y134.263 E17.68449
G1 X65.117 Y132.513 E17.86264
G1 X64.253 Y129.265 E18.12548
G1 X64.253 Y79.735 E21.99859
G1 X64.650 Y77.492 E22.17673
G1 X65.762 Y75.573 E22.35018
G1 E20.35018 F2400.00000
G92 E0
G1 X81.738 Y125.962 F7800.000
G1 E2.00000 F2400.00000
G1 F1800
G1 X81.557 Y126.440 E2.03996
G1 X81.267 Y126.861 E2.07992
G1 X80.884 Y127.200 E2.11989
G1 X80.432 Y127.437 E2.15985
G1 X79.936 Y127.559 E2.19981
G1 X79.424 Y127.559 E2.23977
G1 X78.928 Y127.437 E2.27973
G1 X78.476 Y127.200 E2.31969
G1 X78.093 Y126.861 E2.35965
G1 X77.803 Y126.440 E2.39962
G1 X77.622 Y125.962 E2.43958
G1 X77.562 Y125.473 E2.47809
G1 X77.620 Y124.952 E2.51912
G1 X77.803 Y124.470 E2.55943
G1 X78.093 Y124.049 E2.59939
G1 X78.476 Y123.710 E2.63936
G1 X78.928 Y123.473 E2.67932
G1 X79.424 Y123.351 E2.71928
G1 X79.936 Y123.351 E2.75924
G1 X80.432 Y123.473 E2.79920
G1 X80.884 Y123.710 E2.83916
G1 X81.267 Y124.049 E2.87913
G1 X81.557 Y124.470 E2.91909
G1 X81.738 Y124.948 E2.95905
G1 X81.800 Y125.455 E2.99901
G1 X81.745 Y125.903 E3.03428
G1 X81.213 Y125.833 F7800.000
G1 F1800
G1 X81.078 Y126.189 E3.06404
G1 X80.862 Y126.502 E3.09379
G1 X80.577 Y126.754 E3.12355
G1 X80.240 Y126.931 E3.15331
G1 X79.870 Y127.022 E3.18306
G1 X79.490 Y127.022 E3.21282
G1 X79.120 Y126.931 E3.24258
G1 X78.783 Y126.754 E3.27233
G1 X78.498 Y126.502 E3.30209
G1 X78.282 Y126.189 E3.33185
G1 X78.147 Y125.833 E3.36160
G1 X78.103 Y125.471 E3.39013
G1 X78.147 Y125.079 E3.42096
G1 X78.282 Y124.721 E3.45084
G1 X78.498 Y124.408 E3.48060
G1 X78.783 Y124.156 E3.51036
G1 X79.120 Y123.979 E3.54011
G1 X79.490 Y123.888 E3.56987
G1 X79.870 Y123.888 E3.59963
G1 X80.240 Y123.979 E3.62938
G1 X80.577 Y124.156 E3.65914
G1 X80.862 Y124.408 E3.68890
G1 X81.078 Y124.721 E3.71865
G1 X81.213 Y125.077 E3.74841
G1 X81.258 Y125.455 E3.77817
G1 X81.220 Y125.773 E3.80323
G1 X81.213 Y125.833 F7800.000
G1 E1.80323 F2400.00000
G92 E0
G1 X94.168 Y76.781 F7800.000
G1 E2.00000 F2400.00000
G1 F1800
G1 X93.716 Y76.544 E2.03996
G1 X93.333 Y76.205 E2.07992
G1 X93.043 Y75.784 E2.11988
G1 X92.868 Y75.324 E2.15839
G1 X92.800 Y74.803 E2.19943
G1 X92.862 Y74.292 E2.23974
G1 X93.043 Y73.814 E2.27970
G1 X93.333 Y73.393 E2.31966
G1 X93.716 Y73.054 E2.35962
G1 X94.152 Y72.826 E2.39813
G1 X94.660 Y72.695 E2.43917
G1 X95.176 Y72.695 E2.47948
G1 X95.672 Y72.817 E2.51944
G1 X96.124 Y73.054 E2.55940
G1 X96.493 Y73.381 E2.59791
G1 X96.795 Y73.810 E2.63894
G1 X96.978 Y74.292 E2.67926
G1 X97.040 Y74.799 E2.71922
G1 X96.978 Y75.306 E2.75918
G1 X96.797 Y75.784 E2.79914
G1 X96.507 Y76.205 E2.83910
G1 X96.124 Y76.544 E2.87907
G1 X95.672 Y76.781 E2.91903
G1 X95.176 Y76.903 E2.95899
G1 X94.664 Y76.903 E2.99895
G1 X94.227 Y76.795 E3.03422
G1 X94.360 Y76.275 F7800.000
G1 F1800
G1 X94.023 Y76.098 E3.06398
G1 X93.738 Y75.846 E3.09373
G1 X93.522 Y75.533 E3.12349
G1 X93.393 Y75.191 E3.15202
G1 X93.341 Y74.801 E3.18285
G1 X93.387 Y74.421 E3.21273
G1 X93.522 Y74.065 E3.24249
G1 X93.738 Y73.752 E3.27224
G1 X94.023 Y73.500 E3.30200
G1 X94.346 Y73.330 E3.33053
G1 X94.728 Y73.232 E3.36136
G1 X95.110 Y73.232 E3.39124
G1 X95.480 Y73.323 E3.42100
G1 X95.817 Y73.500 E3.45075
G1 X96.090 Y73.742 E3.47928
G1 X96.317 Y74.064 E3.51011
G1 X96.453 Y74.421 E3.53999
G1 X96.499 Y74.799 E3.56975
G1 X96.453 Y75.177 E3.59951
G1 X96.318 Y75.533 E3.62926
G1 X96.102 Y75.846 E3.65902
G1 X95.817 Y76.098 E3.68878
G1 X95.480 Y76.275 E3.71853
G1 X95.110 Y76.366 E3.74829
G1 X94.730 Y76.366 E3.77805
G1 X94.419 Y76.289 E3.80311
G1 X94.360 Y76.275 F7800.000
G1 E1.80311 F2400.00000
G92 E0
G1 X92.491 Y73.269 F7800.000
G1 E2.00000 F2400.00000
G1 F1800
G1 X92.491 Y72.116 E2.09014
G1 X93.820 Y72.116 E2.19403
G1 X93.880 Y72.361 E2.21378
G1 X93.408 Y72.609 E2.25545
G1 X92.928 Y73.034 E2.30561
G1 X92.718 Y73.339 E2.33460
G1 X92.548 Y73.287 E2.34846
G1 E0.34846 F2400.00000
G92 E0
G1 X120.399 Y83.853 F7800.000
G1 E2.00000 F2400.00000
G1 F1800
G1 X120.496 Y83.598 E2.02130
G1 X120.863 Y83.055 E2.07254
G1 X121.348 Y82.625 E2.12328
G1 X121.916 Y82.327 E2.17345
G1 X122.539 Y82.173 E2.22361
G1 X123.181 Y82.173 E2.27378
G1 X123.804 Y82.327 E2.32395
G1 X124.372 Y82.625 E2.37411
G1 X124.852 Y83.050 E2.42428
G1 X125.216 Y83.578 E2.47445
G1 X125.444 Y84.178 E2.52461
G1 X125.521 Y84.815 E2.57478
G1 X125.444 Y85.452 E2.62494
G1 X125.224 Y86.032 E2.67344
G1 X124.857 Y86.575 E2.72467
G1 X124.372 Y87.005 E2.77541
G1 X123.804 Y87.303 E2.82558
G1 X123.181 Y87.457 E2.87575
G1 X122.539 Y87.457 E2.92591
G1 X121.916 Y87.303 E2.97608
G1 X121.348 Y87.005 E3.02625
G1 X120.884 Y86.594 E3.07474
G1 X120.506 Y86.059 E3.12597
G1 X120.276 Y85.452 E3.17672
G1 X120.199 Y84.815 E3.22688
G1 X120.276 Y84.178 E3.27705
G1 X120.378 Y83.909 E3.29955
G1 X120.902 Y84.044 F7800.000
G1 F1800
G1 X120.976 Y83.847 E3.31597
G1 X121.270 Y83.412 E3.35700
G1 X121.656 Y83.070 E3.39732
G1 X122.108 Y82.833 E3.43728
G1 X122.604 Y82.711 E3.47724
G1 X123.116 Y82.711 E3.51720
G1 X123.612 Y82.833 E3.55716
G1 X124.064 Y83.070 E3.59712
G1 X124.447 Y83.409 E3.63709
G1 X124.737 Y83.830 E3.67705
G1 X124.918 Y84.308 E3.71701
G1 X124.980 Y84.815 E3.75697
G1 X124.918 Y85.322 E3.79693
G1 X124.744 Y85.783 E3.83544
G1 X124.450 Y86.218 E3.87647
G1 X124.064 Y86.560 E3.91679
G1 X123.612 Y86.797 E3.95675
G1 X123.116 Y86.919 E3.99671
G1 X122.604 Y86.919 E4.03667
G1 X122.108 Y86.797 E4.07663
G1 X121.656 Y86.560 E4.11659
G1 X121.287 Y86.233 E4.15510
G1 X120.985 Y85.804 E4.19614
G1 X120.802 Y85.322 E4.23645
G1 X120.740 Y84.815 E4.27641
G1 X120.802 Y84.308 E4.31637
G1 X120.881 Y84.100 E4.33377
G1 X121.404 Y84.234 F7800.000
G1 F1800
G1 X121.457 Y84.096 E4.34531
G1 X121.677 Y83.769 E4.37614
G1 X121.963 Y83.516 E4.40602
G1 X122.300 Y83.339 E4.43578
G1 X122.670 Y83.248 E4.46554
G1 X123.050 Y83.248 E4.49529
G1 X123.420 Y83.339 E4.52505
G1 X123.757 Y83.516 E4.55481
G1 X124.042 Y83.768 E4.58456
G1 X124.258 Y84.081 E4.61432
G1 X124.393 Y84.437 E4.64408
G1 X124.439 Y84.815 E4.67383
G1 X124.393 Y85.193 E4.70359
G1 X124.263 Y85.534 E4.73212
G1 X124.043 Y85.861 E4.76295
G1 X123.757 Y86.114 E4.79283
G1 X123.420 Y86.291 E4.82259
G1 X123.050 Y86.382 E4.85234
G1 X122.670 Y86.382 E4.88210
G1 X122.300 Y86.291 E4.91186
G1 X121.963 Y86.114 E4.94161
G1 X121.690 Y85.872 E4.97014
G1 X121.463 Y85.550 E5.00097
G1 X121.327 Y85.193 E5.03085
G1 X121.282 Y84.815 E5.06061
G1 X121.327 Y84.437 E5.09037
G1 X121.383 Y84.290 E5.10266
G1 X121.305 Y84.125 F7800.000
G1 E3.10266 F2400.00000
G92 E0
G1 X104.969 Y81.116 F7800.000
G1 E2.00000 F2400.00000
G1 F1800
G1 X127.829 Y81.116 E3.78759
G1 X127.829 Y127.884 E7.44471
G1 X80.922 Y127.884 E11.11270
G1 X81.672 Y127.220 E11.19103
G1 X82.036 Y126.692 E11.24120
G1 X82.264 Y126.092 E11.29136
G1 X82.341 Y125.455 E11.34153
G1 X82.264 Y124.818 E11.39170
G1 X82.036 Y124.218 E11.44186
G1 X81.672 Y123.690 E11.49203
G1 X81.192 Y123.265 E11.54219
G1 X80.624 Y122.967 E11.59236
G1 X80.001 Y122.813 E11.64253
G1 X79.359 Y122.813 E11.69269
G1 X78.736 Y122.967 E11.74286
G1 X78.168 Y123.265 E11.79303
G1 X77.688 Y123.690 E11.84319
G1 X77.324 Y124.218 E11.89336
G1 X77.094 Y124.825 E11.94410
G1 X77.021 Y125.476 E11.99534
G1 X77.096 Y126.092 E12.04383
G1 X77.324 Y126.692 E12.09400
G1 X77.688 Y127.220 E12.14416
G1 X78.438 Y127.884 E12.22250
G1 X72.171 Y127.884 E12.71255
G1 X72.171 Y81.116 E16.36967
G1 X92.491 Y81.116 E17.95864
G1 X92.491 Y76.329 E18.33295
G1 X92.718 Y76.259 E18.35150
G1 X92.928 Y76.564 E18.38049
G1 X93.408 Y76.989 E18.43065
G1 X93.976 Y77.287 E18.48082
G1 X94.599 Y77.441 E18.53099
G1 X95.241 Y77.441 E18.58115
G1 X95.864 Y77.287 E18.63132
G1 X96.432 Y76.989 E18.68149
G1 X96.912 Y76.564 E18.73165
G1 X97.276 Y76.036 E18.78182
G1 X97.504 Y75.436 E18.83199
G1 X97.581 Y74.799 E18.88215
G1 X97.504 Y74.162 E18.93232
G1 X97.274 Y73.555 E18.98306
G1 X96.896 Y73.020 E19.03430
G1 X96.432 Y72.609 E19.08279
G1 X95.960 Y72.361 E19.12445
G1 X96.020 Y72.116 E19.14420
G1 X101.440 Y72.116 E19.56797
G1 X101.500 Y72.361 E19.58772
G1 X101.028 Y72.609 E19.62939
G1 X100.548 Y73.034 E19.67955
G1 X100.184 Y73.562 E19.72972
G1 X99.956 Y74.162 E19.77989
G1 X99.878 Y74.806 E19.83063
G1 X99.964 Y75.456 E19.88187
G1 X100.184 Y76.036 E19.93036
G1 X100.548 Y76.564 E19.98052
G1 X101.028 Y76.989 E20.03069
G1 X101.596 Y77.287 E20.08086
G1 X102.219 Y77.441 E20.13102
G1 X102.861 Y77.441 E20.18119
G1 X103.484 Y77.287 E20.23135
G1 X104.052 Y76.989 E20.28152
G1 X104.532 Y76.564 E20.33169
G1 X104.742 Y76.259 E20.36067
G1 X104.969 Y76.329 E20.37922
G1 X104.969 Y81.056 E20.74885
G1 E18.74885 F2400.00000
G92 E0
G1 X103.292 Y76.781 F7800.000
G1 E2.00000 F2400.00000
G1 F1800
G1 X102.796 Y76.903 E2.03996
G1 X102.284 Y76.903 E2.07992
G1 X101.788 Y76.781 E2.11988
G1 X101.336 Y76.544 E2.15985
G1 X100.953 Y76.205 E2.19981
G1 X100.663 Y75.784 E2.23977
G1 X100.488 Y75.324 E2.27828
G1 X100.420 Y74.803 E2.31931
G1 X100.482 Y74.292 E2.35962
G1 X100.663 Y73.814 E2.39959
G1 X100.953 Y73.393 E2.43955
G1 X101.336 Y73.054 E2.47951
G1 X101.788 Y72.817 E2.51947
G1 X102.284 Y72.695 E2.55943
G1 X102.796 Y72.695 E2.59939
G1 X103.274 Y72.812 E2.63790
G1 X103.741 Y73.051 E2.67893
G1 X104.127 Y73.393 E2.71925
G1 X104.417 Y73.814 E2.75921
G1 X104.598 Y74.292 E2.79917
G1 X104.660 Y74.799 E2.83913
G1 X104.598 Y75.306 E2.87909
G1 X104.417 Y75.784 E2.91906
G1 X104.127 Y76.205 E2.95902
G1 X103.744 Y76.544 E2.99898
G1 X103.345 Y76.753 E3.03425
G1 X103.100 Y76.275 F7800.000
G1 F1800
G1 X102.730 Y76.366 E3.06401
G1 X102.350 Y76.366 E3.09376
G1 X101.980 Y76.275 E3.12352
G1 X101.643 Y76.098 E3.15328
G1 X101.358 Y75.846 E3.18303
G1 X101.142 Y75.533 E3.21279
G1 X101.013 Y75.191 E3.24132
G1 X100.961 Y74.801 E3.27215
G1 X101.007 Y74.421 E3.30203
G1 X101.142 Y74.065 E3.33179
G1 X101.358 Y73.752 E3.36154
G1 X101.643 Y73.500 E3.39130
G1 X101.980 Y73.323 E3.42106
G1 X102.350 Y73.232 E3.45081
G1 X102.730 Y73.232 E3.48057
G1 X103.085 Y73.319 E3.50910
G1 X103.435 Y73.499 E3.53993
G1 X103.722 Y73.752 E3.56981
G1 X103.938 Y74.065 E3.59957
G1 X104.073 Y74.421 E3.62932
G1 X104.119 Y74.799 E3.65908
G1 X104.073 Y75.177 E3.68884
G1 X103.938 Y75.533 E3.71859
G1 X103.722 Y75.846 E3.74835
G1 X103.437 Y76.098 E3.77811
G1 X103.153 Y76.247 E3.80317
G1 X103.100 Y76.275 F7800.000
G1 E1.80317 F2400.00000
G92 E0
G1 X104.969 Y73.269 F7800.000
G1 E2.00000 F2400.00000
G1 F1800
G1 X104.742 Y73.339 E2.01855
G1 X104.532 Y73.034 E2.04754
G1 X104.046 Y72.604 E2.09828
G1 X103.575 Y72.363 E2.13967
G1 X103.634 Y72.116 E2.15953
G1 X104.969 Y72.116 E2.26390
G1 X104.969 Y73.209 E2.34934
G1 E0.34934 F2400.00000
G92 E0
G1 X105.506 Y80.579 F7800.000
G1 E2.00000 F2400.00000
G1 F1800
G1 X128.366 Y80.579 E3.78759
G1 X128.366 Y128.421 E7.52875
G1 X71.634 Y128.421 E11.96509
G1 X71.634 Y80.579 E15.70626
G1 X91.954 Y80.579 E17.29523
G1 X91.954 Y71.579 E17.99900
G1 X105.506 Y71.579 E19.05879
G1 X105.506 Y80.519 E19.75787
G1 X106.044 Y80.041 F7800.000
G1 F1800
G1 X128.904 Y80.041 E21.54546
G1 X128.904 Y128.959 E25.37067
G1 X71.096 Y128.959 E29.89105
G1 X71.096 Y80.041 E33.71626
G1 X91.416 Y80.041 E35.30523
G1 X91.416 Y71.041 E36.00900
G1 X106.044 Y71.041 E37.15283
G1 X106.044 Y79.981 E37.85192
G1 X106.177 Y80.418 F7800.000
G1 E35.85192 F2400.00000
G92 E0
G1 X104.426 Y77.060 F7800.000
G1 E2.00000 F2400.00000
G1 F1800
G1 X104.700 Y76.870 E2.00249
G1 X104.934 Y76.037 F7800.000
G1 F1800
G1 X105.007 Y75.639 E2.02835
G1 F1800
G1 X105.049 Y75.394 E2.04123
G1 F1800
G1 X105.084 Y74.818 E2.06667
G1 F1800
G1 X105.066 Y74.492 E2.07773
G1 F1800
G1 X105.043 Y74.158 E2.09250
G1 F1800
G1 X104.970 Y73.760 E2.11344
G1 F1800
G1 X104.934 Y73.561 E2.12637
G1 E0.12637 F2400.00000
G92 E0
G1 X103.339 Y72.194 F7800.000
G1 E2.00000 F2400.00000
G1 F1800
G1 X102.828 Y72.137 E2.04070
G1 X102.252 Y72.137 E2.08631
G1 X101.736 Y72.195 E2.12742
G1 X100.762 Y72.385 F7800.000
G1 F1800
G1 X100.523 Y72.654 E2.13031
G1 E0.13031 F2400.00000
G92 E0
G1 X97.992 Y72.444 F7800.000
G1 E2.00000 F2400.00000
G1 F1800
G1 X97.288 Y73.149 E2.07847
G1 X97.543 Y73.510 E2.11330
G1 X97.584 Y73.618 E2.12240
G1 X98.758 Y72.444 E2.25316
G1 X99.523 Y72.444 E2.31345
G1 X97.795 Y74.173 E2.50601
G1 X97.820 Y74.242 E2.51177
G1 X97.893 Y74.840 E2.55926
G1 X100.116 Y72.617 E2.80687
G1 X100.198 Y72.690 E2.81547
G1 X99.913 Y73.102 E2.85492
G1 X99.635 Y73.864 E2.91885
G1 X97.834 Y75.665 E3.11944
G1 E1.11944 F2400.00000
G92 E0
G1 X93.329 Y77.873 F7800.000
G1 E2.00000 F2400.00000
G1 F1800
G1 X93.132 Y77.770 E2.01755
G1 X92.933 Y78.057 E2.04507
G1 X92.819 Y77.978 E2.05598
G1 X92.819 Y78.383 E2.08783
G1 X93.747 Y77.455 E2.19117
G1 X93.993 Y77.584 E2.21307
G1 X94.306 Y77.662 E2.23845
G1 X92.819 Y79.148 E2.40407
G1 X92.819 Y79.914 E2.46436
G1 X94.964 Y77.769 E2.70325
G1 X95.515 Y77.769 E2.74664
G1 X95.800 Y77.699 E2.76973
G1 X92.819 Y80.679 E3.10170
G1 X92.819 Y81.445 E3.16199
G1 X99.559 Y74.705 E3.91270
G1 X99.649 Y75.381 E3.96639
G1 X72.499 Y102.530 E6.99043
G1 X72.499 Y103.296 E7.05072
G1 X99.859 Y75.936 E10.09821
G1 X99.913 Y76.078 E10.11021
G1 X100.146 Y76.415 E10.14243
G1 X72.499 Y104.061 E13.22181
G1 X72.499 Y104.827 E13.28210
G1 X100.490 Y76.836 E16.39985
G1 X100.896 Y77.196 E16.44255
G1 X72.499 Y105.592 E19.60551
G1 X72.499 Y106.358 E19.66580
G1 X101.390 Y77.467 E22.88377
G1 X101.613 Y77.584 E22.90365
G1 X101.954 Y77.668 E22.93129
G1 X72.499 Y107.123 E26.21210
G1 X72.499 Y107.888 E26.27239
G1 X102.619 Y77.769 E29.62724
G1 X103.135 Y77.769 E29.66790
G1 X103.466 Y77.688 E29.69473
G1 X72.499 Y108.654 E33.14393
G1 X72.499 Y109.419 E33.20422
G1 X104.426 Y77.493 E36.76034
G1 X104.534 Y77.650 E36.77536
G1 X104.641 Y77.577 E36.78555
G1 X104.641 Y78.044 E36.82235
G1 X72.499 Y110.185 E40.40241
G1 X72.499 Y110.950 E40.46269
G1 X104.641 Y78.809 E44.04275
G1 X104.641 Y79.575 E44.10304
G1 X72.499 Y111.716 E47.68309
G1 X72.499 Y112.481 E47.74338
G1 X104.641 Y80.340 E51.32344
G1 X104.641 Y81.106 E51.38373
G1 X72.499 Y113.247 E54.96378
G1 X72.499 Y114.012 E55.02407
G1 X105.067 Y81.444 E58.65165
G1 X105.833 Y81.444 E58.71194
G1 X72.499 Y114.778 E62.42477
G1 X72.499 Y115.543 E62.48506
G1 X106.598 Y81.444 E66.28316
G1 X107.364 Y81.444 E66.34345
G1 X72.499 Y116.309 E70.22681
G1 X72.499 Y117.074 E70.28710
G1 X108.129 Y81.444 E74.25572
G1 X108.895 Y81.444 E74.31601
G1 X72.499 Y117.840 E78.36989
G1 X72.499 Y118.605 E78.43018
G1 X109.660 Y81.444 E82.56933
G1 X110.425 Y81.444 E82.62961
G1 X72.499 Y119.370 E86.85402
G1 X72.499 Y120.136 E86.91431
G1 X111.191 Y81.444 E91.22398
G1 X111.956 Y81.444 E91.28427
G1 X72.499 Y120.901 E95.67920
G1 X72.499 Y121.667 E95.73949
G1 X112.722 Y81.444 E100.21968
G1 X113.487 Y81.444 E100.27997
G1 X72.499 Y122.432 E104.84542
G1 X72.499 Y123.198 E104.90571
G1 X114.253 Y81.444 E109.55642
G1 X115.018 Y81.444 E109.61671
G1 X72.499 Y123.963 E114.35269
G1 X72.499 Y124.729 E114.41298
G1 X115.784 Y81.444 E119.23421
G1 X116.549 Y81.444 E119.29450
G1 X72.499 Y125.494 E124.20100
G1 X72.499 Y126.260 E124.26129
G1 X117.315 Y81.444 E129.25305
G1 X118.080 Y81.444 E129.31334
G1 X72.499 Y127.025 E134.39036
